web/ui/src/assets/svgs/error/500.svg

<svg height="245" viewBox="0 0 391 245" width="391" xmlns="http://www.w3.org/2000/svg" xmlns:xlink="http://www.w3.org/1999/xlink"><mask id="a" fill="#fff"><path d="m0 .63081188h219.32313v109.07546412h-219.32313z" fill="#fff" fill-rule="evenodd"/></mask><mask id="b" fill="#fff"><path d="m.33314917.328299h121.67678683v108.352342h-121.67678683z" fill="#fff" fill-rule="evenodd"/></mask><g fill="none" fill-rule="evenodd"><g fill-rule="nonzero" transform="translate(0 -2)"><path d="m18.7208445 216.431254c49.1191051 53.278409 228.0348905 10.252703 275.7095495-12.047905 83.037365-38.841598 40.838104 59.548297 83.551747 8.052581 31.635262-38.138592 3.691804-136.3939287-63.011137-181.9392656-58.087743-39.6627404-123.131401-39.22796084-199.810825-6.8693232-81.66618 34.463784-149.3007344 135.4672378-96.4393345 192.8039128z" fill="#deecfd" opacity=".20062156744"/><path d="m74 0h242v242h-242z" fill="#000" opacity="0"/><g fill="#e7f2ff"><path d="m190.081985 46.2539821c0 3.2695241-2.665792 5.9164065-5.944054 5.9164065h-23.78308c-1.576828.0010679-3.089485-.6217542-4.205133-1.7314251-1.114611-1.1100647-1.741375-2.6151896-1.742709-4.1849814 0-3.268581 2.663188-5.9206488 5.948079-5.9206488h23.78308c3.278025-.0002357 5.943817 2.6520678 5.943817 5.9206488zm32.369961 0c0 3.2695241-1.873867 5.9164052-4.186193 5.9164052h-16.730332c-2.31493 0-4.186193-2.6492387-4.186193-5.9164052 0-3.268581 1.871026-5.9206488 4.186193-5.9206488h16.730332c2.312326-.0002357 4.186193 2.6520678 4.186193 5.9206488zm36.333374 24.0110094c0 1.8327677-.730734 3.5905434-2.032353 4.8862848-1.301618 1.2957413-3.067014 2.0232007-4.907466 2.0222008h-68.703099c-3.830123 0-6.935558-3.0924691-6.935558-6.9082498 0-3.8138947 3.105672-6.9065993 6.935558-6.9065993h68.703336c1.840212-.0008934 3.605386.7263305 4.907093 2.0216455 1.301085 1.2954675 2.032489 3.0525202 2.032489 4.884718zm18.498372 24.6685449c0 3.634481-2.95794 6.5814846-6.608844 6.5814846h-103.716124c-3.649721 0-6.607661-2.945589-6.607661-6.5800701 0-3.6330664 2.958177-6.5798346 6.607661-6.5798346h103.713757c3.649483 0 6.608844 2.9444106 6.611211 6.5784201zm5.945475 23.3574816c0 1.832483-.730462 3.590023-2.031306 4.886133-1.300696 1.296271-3.065496 2.024484-4.905673 2.024238h-19.161979c-3.832727 0-6.938399-3.093883-6.938399-6.909192 0-3.815781 3.105435-6.909663 6.938399-6.909663h19.161979c1.839539 0 3.604028.728027 4.905673 2.022823 1.300398 1.296214 2.031306 3.053419 2.031306 4.885661zm-38.317803 0c0 3.817431-4.614472 6.910371-10.319647 6.910371h-132.633577c-5.6949936 0-10.3123067-3.089875-10.3123067-6.910371 0-3.816016 4.6170763-6.908484 10.3123067-6.908484h132.633577c5.705175.000235 10.319647 3.092703 10.319647 6.908484z"/><path d="m203.402443 147.394563c0 2.098558-.834461 4.111272-2.319859 5.596013-1.486213 1.483949-3.50199 2.317636-5.603861 2.317636h-113.5550314c-2.830346-.000305-5.4456408-1.507824-6.8611518-3.954935-1.4167197-2.447248-1.4167197-5.463565 0-7.910814 1.4148287-2.447976 4.0303953-3.956193 6.8611518-3.956352h113.5550314c2.101242-.000332 4.116535.832851 5.602442 2.316219 1.486423 1.482627 2.321278 3.494446 2.321278 5.592233zm101.673946 27.946519c-.00142 4.329121-3.51516 7.838056-7.851321 7.839474h-94.553244c-4.257137-.110792-7.649029-3.588545-7.649029-7.839474 0-4.251164 3.391892-7.728209 7.649029-7.839473h94.550878c4.335924.002363 7.851084 3.510589 7.853687 7.839473z"/><path d="m289.178486 201.667298c0 2.007308-.597234 3.932329-1.660449 5.35095-1.063647 1.416735-2.504681 2.211886-4.006797 2.210918h-105.537882c-3.126414 0-5.660858-3.385586-5.660858-7.561868s2.534444-7.563131 5.660858-7.563131h105.538118c3.129963 0 5.66701 3.384953 5.66701 7.563131zm21.779847 0c0 4.174386-2.533261 7.559971-5.659675 7.561867h-4.520216c-3.127834 0-5.662278-3.385585-5.662278-7.561867s2.534444-7.563131 5.662278-7.563131h4.51998c3.122865 0 5.659911 3.384953 5.659911 7.563131z"/></g></g><g transform="translate(17 82.5)"><path d="m113.998073 77.5314422h-12.8529c-1.9560857 0-3.5561434-1.590743-3.5561434-3.5346035s1.6000577-3.5346035 3.5561434-3.5346035h12.8529c1.956086 0 3.556834 1.590743 3.556834 3.5346035s-1.600748 3.5346035-3.556834 3.5346035m51.742789-76.48868274c-.092457-.00685665-.180775-.02811227-.274612-.02811227h-49.443093c-1.956086 0-3.556834 1.590743-3.556834 3.53528917 0 1.94386052 1.600748 3.53391785 3.556834 3.53391785h21.652182 8.665427c1.956086 0 3.556833 1.59074299 3.556833 3.53528919 0 1.9438605-1.600747 3.5339178-3.556833 3.5339178h-18.497606-22.514653c-1.956087 0-3.556834 1.590743-3.556834 3.5346035 0 1.9445462 1.600747 3.5346035 3.556834 3.5346035h15.961248c-7.111598 9.1721419-11.341849 20.6638887-11.341849 33.1388792 0 2.8400248.220792 5.6286247.643748 8.3507151h-8.84689c-3.3850296-16.329114-18.0173813-28.7087971-35.4172324-28.7087971h-19.9955463v-7.8714352h44.3862489c3.0359007 0 5.5198195-2.4683943 5.5198195-5.4853206v-15.53031419c0-3.01692636-2.4839188-5.48532067-5.5198195-5.48532067h-84.28074466c-1.89743797 0-3.44988721 1.54274644-3.44988721 3.42832542s1.55244924 3.42832542 3.44988721 3.42832542h27.14371256c1.2626588 0 2.2976249 1.02849763 2.2976249 2.28326473v2.28326469c0 1.2616238-1.0349661 2.2901214-2.2976249 2.2901214h-20.5130293c-1.897438 0-3.44988725 1.5427465-3.44988725 3.4283254 0 1.885579 1.55244925 3.4283255 3.44988725 3.4283255h3.9880696c1.1177634.0205699 2.0354334.9325045 2.0354334 2.0569952v3.8740077h.2414921v7.8714352h-.2414921v19.795151c0 1.1244907-.91767 2.0364253-2.0354334 2.0569952h-7.29996136c-1.89743797 0-3.44988721 1.5427465-3.44988721 3.4283254 0 1.885579 1.55244924 3.4283255 3.44988721 3.4283255h72.81331956c1.897438 0 3.4498872 1.5427464 3.4498872 3.4283254s-1.5524492 3.4283254-3.4498872 3.4283254h-14.2618338c-1.8974379 0-3.4498872 1.5427464-3.4498872 3.4283254s1.5524493 3.4283254 3.4498872 3.4283254h8.3970255c1.897438 0 3.4498872 1.5427465 3.4498872 3.4283255 0 1.8855789-1.5524492 3.4283254-3.4498872 3.4283254h-73.25490509c-1.89743796 0-3.44988721 1.5427464-3.44988721 3.4283254s1.55244925 3.4283254 3.44988721 3.4283254h48.18802459c1.2143603.5348188 2.0630326 1.7347327 2.0630326 3.1334894 0 1.6455962-1.1867612 3.0306397-2.75301 3.3529023h-29.5586337c-1.1384628 0-2.0699323.9256479-2.0699323 2.0569953v.9667882c0 .575958-.2276926 1.117634-.5933806 1.515319-.2897905.32912-.6768679.575959-1.1108637.685665h-2.8979052c-.1586949 0-.3104899.006857-.4553852.034284-.3311891.04114-.641679.130276-.9383693.260552-1.2074605.534819-2.0561328 1.74159-2.0561328 3.13349 0 1.885579 1.5524493 3.428325 3.4498873 3.428325h51.6103127c16.21033 0 30.006429-10.7471142 34.5554504-25.424461h17.460569c9.681074 15.2704471 26.788374 25.424461 46.292657 25.424461 30.202382 0 54.686922-24.3315109 54.686922-54.3451286 0-29.6461012-23.891159-53.73145863-53.582268-54.31838794" fill="#6fb3ff" mask="url(#a)" transform="translate(0 .512647)"/><path d="m122.010143 54.5048119c0-29.9208008-24.4612687-54.1765129-54.6356357-54.1765129-15.8454374 0-30.1068135 6.69585063-40.0847447 17.3821439h-23.4031602c-1.95422695 0-3.55345323 1.5851039-3.55345323 3.5235923 0 1.9378048 1.59922628 3.5229087 3.55345323 3.5229087h28.5034512c1.4000124.4736857 2.4208978 1.7792262 2.4208978 3.3226348 0 1.9378048-1.5992263 3.5235922-3.5534533 3.5235922h-13.3983454-6.7236436c-1.95422692 0-3.55276388 1.5851039-3.55276388 3.5229088 0 1.9384884 1.59853696 3.5242758 3.55276388 3.5242758h3.9925512c-1.5495952 5.0143692-2.3898783 10.3356429-2.3898783 15.8544564 0 12.4354442 4.2269205 23.8913911 11.331759 33.0349593h-20.17230945c-1.95422695 0-3.55276392 1.5851039-3.55276392 3.5235923 0 1.9378049 1.59853697 3.5235923 3.55276392 3.5235923h26.71948675 19.5746676c1.9542269 0 3.5541425 1.5851038 3.5541425 3.5235922 0 1.937805-1.5999156 3.523592-3.5541425 3.523592h-9.7518337-21.032583c-1.9542269 0-3.5527639 1.585788-3.5527639 3.522909 0 1.938488 1.598537 3.523592 3.5527639 3.523592h49.3961019c.1626799 0 .317088-.025974.4742533-.047163 29.2906566-.996586 52.7324186-24.8408131 52.7324186-54.1286661" fill="#6fb3ff" mask="url(#b)" transform="translate(214.286359 1.53794)"/><g fill="#f8fafb"><path d="m154.64479 56.425362c0-4.2720686-2.213113-7.1769111-5.464227-7.1769111-3.251115 0-5.428912 2.9048425-5.428912 7.1769111 0 4.2713843 2.177797 7.1084812 5.428912 7.1084812 3.251114 0 5.464227-2.8370969 5.464227-7.1084812m-14.179569 0c0-6.1860484 4.116001-9.774504 8.715342-9.774504 4.59934 0 8.714649 3.5884556 8.714649 9.774504 0 6.1511492-4.115309 9.7060741-8.714649 9.7060741-4.599341 0-8.715342-3.5549249-8.715342-9.7060741"/><path d="m161.996386 39.473803h3.224886v7.5812251l-.106432 3.8947177c1.771735-1.7388003 3.755625-3.1642405 6.378816-3.1642405 4.039444 0 5.882134 2.5737308 5.882134 7.4078325v11.9633919h-3.224885v-11.5462748c0-3.5472362-1.098377-5.042312-3.649904-5.042312-1.984599 0-3.331317.9735053-5.279729 2.8863946v13.7021922h-3.224886z"/><path d="m182.502258 63.6048617c0-1.5015741.93183-2.5998935 2.050898-2.5998935 1.118446 0 2.050276 1.0983194 2.050276 2.5998935s-.93183 2.5265744-2.050276 2.5265744c-1.119068 0-2.050898-1.0250003-2.050898-2.5265744"/><path d="m191.7299 63.6048617c0-1.5015741.931831-2.5998935 2.050898-2.5998935 1.118446 0 2.050276 1.0983194 2.050276 2.5998935s-.93183 2.5265744-2.050276 2.5265744c-1.119067 0-2.050898-1.0250003-2.050898-2.5265744"/><path d="m290.158084 36.184144c0-3.8295614-2.999144-6.9632769-6.664763-6.9632769-3.66491 0-6.664054 3.1337155-6.664054 6.9632769l3.375014 26.0739171h.029842c.179054 1.5995508 1.561033 2.8480814 3.259198 2.8480814 1.698875 0 3.080854-1.2485306 3.259907-2.8480814h.029843z"/><path d="m288.107497 77.4096655c0 2.831275-2.295193 5.126468-5.126468 5.126468-2.830543 0-5.126468-2.295193-5.126468-5.126468s2.295925-5.1264679 5.126468-5.1264679c2.831275 0 5.126468 2.2951929 5.126468 5.1264679"/></g></g></g></svg>

<?xml version="1.0" encoding="UTF-8"?>
<svg width="391px" height="245px" viewBox="0 0 391 245" version="1.1" xmlns="http://www.w3.org/2000/svg" xmlns:xlink="http://www.w3.org/1999/xlink">
    <title>bg_404</title>
    <defs>
        <polygon id="path-1" points="0 0.630811877 219.32313 0.630811877 219.32313 109.706276 0 109.706276"></polygon>
        <polygon id="path-3" points="0.333149165 0.328299005 122.009936 0.328299005 122.009936 108.680641 0.333149165 108.680641"></polygon>
    </defs>
    <g id="页面-1" stroke="none" stroke-width="1" fill="none" fill-rule="evenodd">
        <g id="建木-404备份" transform="translate(-755.000000, -333.000000)">
            <g id="编组-5" transform="translate(755.000000, 331.000000)">
                <g id="编组-3" fill-rule="nonzero">
                    <g id="bg备份-2" opacity="0.367278343" fill="#DEECFD">
                        <path d="M18.7208445,216.431254 C67.8399496,269.709663 246.755735,226.683957 294.430394,204.383349 C377.467759,165.541751 335.268498,263.931646 377.982141,212.43593 C409.617403,174.297338 381.673945,76.0420013 314.971004,30.4966644 C256.883261,-9.166076 191.839603,-8.73129644 115.160179,23.6273412 C33.493999,58.0911252 -34.1405554,159.094579 18.7208445,216.431254 Z" id="Shape" opacity="0.546239099"></path>
                    </g>
                    <rect id="矩形" fill="#000000" opacity="0" x="74" y="0" width="242" height="242"></rect>
                    <path d="M190.081985,46.2539821 C190.081985,49.5235062 187.416193,52.1703886 184.137931,52.1703886 L160.354851,52.1703886 C158.778023,52.1714565 157.265366,51.5486344 156.149718,50.4389635 C155.035107,49.3288988 154.408343,47.8237739 154.407009,46.2539821 C154.407009,42.9854011 157.070197,40.3333333 160.355088,40.3333333 L184.138168,40.3333333 C187.416193,40.3330976 190.081985,42.9854011 190.081985,46.2539821 L190.081985,46.2539821 Z M222.451946,46.2539821 C222.451946,49.5235062 220.578079,52.1703873 218.265753,52.1703873 L201.535421,52.1703873 C199.220491,52.1703873 197.349228,49.5211486 197.349228,46.2539821 C197.349228,42.9854011 199.220254,40.3333333 201.535421,40.3333333 L218.265753,40.3333333 C220.578079,40.3330976 222.451946,42.9854011 222.451946,46.2539821 Z M258.78532,70.2649915 C258.78532,72.0977592 258.054586,73.8555349 256.752967,75.1512763 C255.451349,76.4470176 253.685953,77.174477 251.845501,77.1734771 L183.142402,77.1734771 C179.312279,77.1734771 176.206844,74.081008 176.206844,70.2652273 C176.206844,66.4513326 179.312516,63.358628 183.142402,63.358628 L251.845738,63.358628 C253.68595,63.3577346 255.451124,64.0849585 256.752831,65.3802735 C258.053916,66.675741 258.78532,68.4327937 258.78532,70.2649915 L258.78532,70.2649915 Z M277.283692,94.9335364 C277.283692,98.5680174 274.325752,101.515021 270.674848,101.515021 L166.958724,101.515021 C163.309003,101.515021 160.351063,98.569432 160.351063,94.9349509 C160.351063,91.3018845 163.30924,88.3551163 166.958724,88.3551163 L270.672481,88.3551163 C274.321964,88.3551163 277.281325,91.2995269 277.283692,94.9335364 Z M283.229167,118.291018 C283.229167,120.123501 282.498705,121.881041 281.197861,123.177151 C279.897165,124.473422 278.132365,125.201635 276.292188,125.201389 L257.130209,125.201389 C253.297482,125.201389 250.19181,122.107506 250.19181,118.292197 C250.19181,114.476416 253.297245,111.382534 257.130209,111.382534 L276.292188,111.382534 C278.131727,111.382534 279.896216,112.110561 281.197861,113.405357 C282.498259,114.701571 283.229167,116.458776 283.229167,118.291018 Z M244.911364,118.291018 C244.911364,122.108449 240.296892,125.201389 234.591717,125.201389 L101.95814,125.201389 C96.2631464,125.201389 91.6458333,122.111514 91.6458333,118.291018 C91.6458333,114.475002 96.2629096,111.382534 101.95814,111.382534 L234.591717,111.382534 C240.296892,111.382769 244.911364,114.475237 244.911364,118.291018 L244.911364,118.291018 Z" id="形状" fill="#E7F2FF"></path>
                    <path d="M203.402443,147.394563 C203.402443,149.493121 202.567982,151.505835 201.082584,152.990576 C199.596371,154.474525 197.580594,155.308212 195.478723,155.308212 L81.9236916,155.308212 C79.0933456,155.307907 76.4780508,153.800388 75.0625398,151.353277 C73.6458201,148.906029 73.6458201,145.889712 75.0625398,143.442463 C76.4773685,140.994487 79.0929351,139.48627 81.9236916,139.486111 L195.478723,139.486111 C197.579965,139.485779 199.595258,140.318962 201.081165,141.80233 C202.567588,143.284957 203.402443,145.296776 203.402443,147.394563 L203.402443,147.394563 Z M305.076389,175.341082 C305.074969,179.670203 301.561229,183.179138 297.225068,183.180556 L202.671824,183.180556 C198.414687,183.069764 195.022795,179.592011 195.022795,175.341082 C195.022795,171.089918 198.414687,167.612873 202.671824,167.501609 L297.222702,167.501609 C301.558626,167.503972 305.073786,171.012198 305.076389,175.341082 L305.076389,175.341082 Z" id="形状" fill="#E7F2FF"></path>
                    <path d="M289.178486,201.667298 C289.178486,203.674606 288.581252,205.599627 287.518037,207.018248 C286.45439,208.434983 285.013356,209.230134 283.51124,209.229166 L177.973358,209.229166 C174.846944,209.229166 172.3125,205.84358 172.3125,201.667298 C172.3125,197.491016 174.846944,194.104167 177.973358,194.104167 L283.511476,194.104167 C286.641439,194.104167 289.178486,197.48912 289.178486,201.667298 Z M310.958333,201.667298 C310.958333,205.841684 308.425072,209.227269 305.298658,209.229165 L300.778442,209.229165 C297.650608,209.229165 295.116164,205.84358 295.116164,201.667298 C295.116164,197.491016 297.650608,194.104167 300.778442,194.104167 L305.298422,194.104167 C308.421287,194.104167 310.958333,197.48912 310.958333,201.667298 Z" id="形状" fill="#E7F2FF"></path>
                </g>
                <g id="编组" transform="translate(17.000000, 84.500000)">
                    <g transform="translate(0.000000, 0.512647)">
                        <mask id="mask-2" fill="white">
                            <use xlink:href="#path-1"></use>
                        </mask>
                        <g id="Clip-2"></g>
                        <path d="M113.998073,77.5314422 L101.145173,77.5314422 C99.1890873,77.5314422 97.5890296,75.9406992 97.5890296,73.9968387 C97.5890296,72.0529782 99.1890873,70.4622352 101.145173,70.4622352 L113.998073,70.4622352 C115.954159,70.4622352 117.554907,72.0529782 117.554907,73.9968387 C117.554907,75.9406992 115.954159,77.5314422 113.998073,77.5314422 M165.740862,1.04275946 C165.648405,1.03590281 165.560087,1.01464719 165.46625,1.01464719 L116.023157,1.01464719 C114.067071,1.01464719 112.466323,2.60539019 112.466323,4.54993636 C112.466323,6.49379688 114.067071,8.08385421 116.023157,8.08385421 L137.675339,8.08385421 L146.340766,8.08385421 C148.296852,8.08385421 149.897599,9.6745972 149.897599,11.6191434 C149.897599,13.5630039 148.296852,15.1530612 146.340766,15.1530612 L127.84316,15.1530612 L105.328507,15.1530612 C103.37242,15.1530612 101.771673,16.7438042 101.771673,18.6876647 C101.771673,20.6322109 103.37242,22.2222682 105.328507,22.2222682 L121.289755,22.2222682 C114.178157,31.3944101 109.947906,42.8861569 109.947906,55.3611474 C109.947906,58.2011722 110.168698,60.9897721 110.591654,63.7118625 L101.744764,63.7118625 C98.3597344,47.3827485 83.7273827,35.0030654 66.3275316,35.0030654 L46.3319853,35.0030654 L46.3319853,27.1316302 L90.7182342,27.1316302 C93.7541349,27.1316302 96.2380537,24.6632359 96.2380537,21.6463096 L96.2380537,6.11599541 C96.2380537,3.09906905 93.7541349,0.630674744 90.7182342,0.630674744 L6.43748954,0.630674744 C4.54005157,0.630674744 2.98760233,2.17342118 2.98760233,4.05900016 C2.98760233,5.94457914 4.54005157,7.48732558 6.43748954,7.48732558 L33.5812021,7.48732558 C34.8438609,7.48732558 35.878827,8.51582321 35.878827,9.77059031 L35.878827,12.053855 C35.878827,13.3154788 34.8438609,14.3439764 33.5812021,14.3439764 L13.0681728,14.3439764 C11.1707348,14.3439764 9.61828555,15.8867229 9.61828555,17.7723018 C9.61828555,19.6578808 11.1707348,21.2006273 13.0681728,21.2006273 L17.0562424,21.2006273 C18.1740058,21.2211972 19.0916758,22.1331318 19.0916758,23.2576225 L19.0916758,27.1316302 L19.3331679,27.1316302 L19.3331679,35.0030654 L19.0916758,35.0030654 L19.0916758,54.7982164 C19.0916758,55.9227071 18.1740058,56.8346417 17.0562424,56.8552116 L9.75628104,56.8552116 C7.85884307,56.8552116 6.30639383,58.3979581 6.30639383,60.283537 C6.30639383,62.169116 7.85884307,63.7118625 9.75628104,63.7118625 L82.5696006,63.7118625 C84.4670386,63.7118625 86.0194878,65.2546089 86.0194878,67.1401879 C86.0194878,69.0257669 84.4670386,70.5685133 82.5696006,70.5685133 L68.3077668,70.5685133 C66.4103289,70.5685133 64.8578796,72.1112597 64.8578796,73.9968387 C64.8578796,75.8824177 66.4103289,77.4251641 68.3077668,77.4251641 L76.7047923,77.4251641 C78.6022303,77.4251641 80.1546795,78.9679106 80.1546795,80.8534896 C80.1546795,82.7390685 78.6022303,84.281815 76.7047923,84.281815 L3.44988721,84.281815 C1.55244925,84.281815 0,85.8245614 0,87.7101404 C0,89.5957194 1.55244925,91.1384658 3.44988721,91.1384658 L51.6379118,91.1384658 C52.8522721,91.6732846 53.7009444,92.8731985 53.7009444,94.2719552 C53.7009444,95.9175514 52.5141832,97.3025949 50.9479344,97.6248575 L21.3893007,97.6248575 C20.2508379,97.6248575 19.3193684,98.5505054 19.3193684,99.6818528 L19.3193684,100.648641 C19.3193684,101.224599 19.0916758,101.766275 18.7259878,102.16396 C18.4361973,102.49308 18.0491199,102.739919 17.6151241,102.849625 L14.7172189,102.849625 C14.558524,102.849625 14.406729,102.856482 14.2618337,102.883909 C13.9306446,102.925049 13.6201547,103.014185 13.3234644,103.144461 C12.1160039,103.67928 11.2673316,104.886051 11.2673316,106.277951 C11.2673316,108.16353 12.8197809,109.706276 14.7172189,109.706276 L66.3275316,109.706276 C82.5378616,109.706276 96.3339606,98.9591618 100.882982,84.281815 L118.343551,84.281815 C128.024625,99.5522621 145.131925,109.706276 164.636208,109.706276 C194.83859,109.706276 219.32313,85.3747651 219.32313,55.3611474 C219.32313,25.7150462 195.431971,1.62968877 165.740862,1.04275946" id="Fill-1" fill="#6FB3FF" mask="url(#mask-2)"></path>
                    </g>
                    <g transform="translate(214.286359, 1.537940)">
                        <mask id="mask-4" fill="white">
                            <use xlink:href="#path-3"></use>
                        </mask>
                        <g id="Clip-4"></g>
                        <path d="M122.010143,54.5048119 C122.010143,24.5840111 97.5488743,0.328299005 67.3745073,0.328299005 C51.5290699,0.328299005 37.2676938,7.02414963 27.2897626,17.7104429 L3.8866024,17.7104429 C1.93237545,17.7104429 0.333149165,19.2955468 0.333149165,21.2340352 C0.333149165,23.17184 1.93237545,24.7569439 3.8866024,24.7569439 L32.3900536,24.7569439 C33.790066,25.2306296 34.8109514,26.5361701 34.8109514,28.0795787 C34.8109514,30.0173835 33.2117251,31.6031709 31.2574981,31.6031709 L17.8591527,31.6031709 L11.1355091,31.6031709 C9.18128218,31.6031709 7.58274522,33.1882748 7.58274522,35.1260797 C7.58274522,37.0645681 9.18128218,38.6503555 11.1355091,38.6503555 L15.1280603,38.6503555 C13.5784651,43.6647247 12.738182,48.9859984 12.738182,54.5048119 C12.738182,66.9402561 16.9651025,78.396203 24.069941,87.5397712 L3.89763155,87.5397712 C1.9434046,87.5397712 0.344867634,89.1248751 0.344867634,91.0633635 C0.344867634,93.0011684 1.9434046,94.5869558 3.89763155,94.5869558 L30.6171183,94.5869558 L50.1917859,94.5869558 C52.1460128,94.5869558 53.7459284,96.1720596 53.7459284,98.110548 C53.7459284,100.048353 52.1460128,101.63414 50.1917859,101.63414 L40.4399522,101.63414 L19.4073692,101.63414 C17.4531423,101.63414 15.8546053,103.219928 15.8546053,105.157049 C15.8546053,107.095537 17.4531423,108.680641 19.4073692,108.680641 L68.8034711,108.680641 C68.966151,108.680641 69.1205591,108.654667 69.2777244,108.633478 C98.568381,107.636892 122.010143,83.7926649 122.010143,54.5048119" id="Fill-3" fill="#6FB3FF" mask="url(#mask-4)"></path>
                    </g>
                    <path d="M154.64479,56.425362 C154.64479,52.1532934 152.431677,49.2484509 149.180563,49.2484509 C145.929448,49.2484509 143.751651,52.1532934 143.751651,56.425362 C143.751651,60.6967463 145.929448,63.5338432 149.180563,63.5338432 C152.431677,63.5338432 154.64479,60.6967463 154.64479,56.425362 M140.465221,56.425362 C140.465221,50.2393136 144.581222,46.650858 149.180563,46.650858 C153.779903,46.650858 157.895212,50.2393136 157.895212,56.425362 C157.895212,62.5765112 153.779903,66.1314361 149.180563,66.1314361 C144.581222,66.1314361 140.465221,62.5765112 140.465221,56.425362" id="Fill-5" fill="#F8FAFB"></path>
                    <path d="M161.996386,39.473803 L165.221272,39.473803 L165.221272,47.0550281 L165.11484,50.9497458 C166.886575,49.2109455 168.870465,47.7855053 171.493656,47.7855053 C175.5331,47.7855053 177.37579,50.3592361 177.37579,55.1933378 L177.37579,67.1567297 L174.150905,67.1567297 L174.150905,55.6104549 C174.150905,52.0632187 173.052528,50.5681429 170.501001,50.5681429 C168.516402,50.5681429 167.169684,51.5416482 165.221272,53.4545375 L165.221272,67.1567297 L161.996386,67.1567297 L161.996386,39.473803 Z" id="Fill-7" fill="#F8FAFB"></path>
                    <path d="M182.502258,63.6048617 C182.502258,62.1032876 183.434088,61.0049682 184.553156,61.0049682 C185.671602,61.0049682 186.603432,62.1032876 186.603432,63.6048617 C186.603432,65.1064358 185.671602,66.1314361 184.553156,66.1314361 C183.434088,66.1314361 182.502258,65.1064358 182.502258,63.6048617" id="Fill-9" fill="#F8FAFB"></path>
                    <path d="M191.7299,63.6048617 C191.7299,62.1032876 192.661731,61.0049682 193.780798,61.0049682 C194.899244,61.0049682 195.831074,62.1032876 195.831074,63.6048617 C195.831074,65.1064358 194.899244,66.1314361 193.780798,66.1314361 C192.661731,66.1314361 191.7299,65.1064358 191.7299,63.6048617" id="Fill-11" fill="#F8FAFB"></path>
                    <path d="M290.158084,36.184144 C290.158084,32.3545826 287.15894,29.2208671 283.493321,29.2208671 C279.828411,29.2208671 276.829267,32.3545826 276.829267,36.184144 L280.204281,62.2580611 L280.234123,62.2580611 C280.413177,63.8576119 281.795156,65.1061425 283.493321,65.1061425 C285.192196,65.1061425 286.574175,63.8576119 286.753228,62.2580611 L286.783071,62.2580611 L290.158084,36.184144 Z" id="Fill-13" fill="#F8FAFB"></path>
                    <path d="M288.107497,77.4096655 C288.107497,80.2409405 285.812304,82.5361335 282.981029,82.5361335 C280.150486,82.5361335 277.854561,80.2409405 277.854561,77.4096655 C277.854561,74.5783905 280.150486,72.2831976 282.981029,72.2831976 C285.812304,72.2831976 288.107497,74.5783905 288.107497,77.4096655" id="Fill-15" fill="#F8FAFB"></path>
                </g>
            </g>
        </g>
    </g>
</svg>
